X:1
T:Ye Must Be Born Again
T:George Coles Stebbins
T:Ye Must Be Born Again
T:Public Domain
T:Public Domain
C:George Coles Stebbins
Z:Public Domain
%%score ( 1 2 ) ( 3 4 )
L:1/8
M:6/8
K:Eb
V:1 treble 
V:2 treble 
V:3 bass 
V:4 bass 
V:1
 [B,E] | [EG][EG][EG] ([EG][FA])[GB] | [Ac][GB][^F=A] [GB]2 ([GB]/[GB]/) | %3
w: 1.~A|rul- er once came * to|Je- sus by night To *|
w: 2.~Ye|child- ren of men, * at-|tend to the Word, So *|
w: 3.~O|ye who would enter * that|glor- i- ous rest, And *|
w: 4.~A|dear one in Heaven * thy|heart yearns to see, At~the *|
 [GB][FA][EG] [DF][EG][FA] | [FA][EG][E^F] [EG]2 [B,E] | [EG][EG][EG] [EG][FA][GB] | %6
w: ask Him the way of sal-|va- tion and light; The|Mas- ter made an- swer in|
w: sol- emn- ly ut- tered by|Je- sus the Lord; And|let not this mes- sage to|
w: sing with the ran- somed the|song of the blest, The|life ev- er- last- ing if|
w: beau- ti- ful gate may be|watch- ing for thee, Then|list to the note of this|
 [Ac][GB][^F=A] [GB]2 [EG] | [DF]2 [FB] [EB]2 [E=A] | (D2 E B2) || %9
w: words true and plain, “Ye|must be born a-|gain.” * *|
w: you be in vain, “Ye|must be born a-|gain.” * *|
w: ye would ob- tain, “Ye|must be born a-|gain.” * *|
w: sol- emn re- frain, “Ye|must be born a-|gain.” * *|
"^Refrain" [AB] [GB]2 [GB]([EG][FA])[GB] | (A2 A [Ac]2) [Ac] | [Ac]2 [Ac] ([DF][EG])[FA] | %12
w: |||
w: be born a- gain, * Ye|must * * be|a- gain.; I * ver-|
w: |||
w: |||
 (G2 F [EB]2) [DA] | [EG]>[EG][EG] [DA]>[DA][DA] | [EB][EB][EB] [Ec]2 [Ae] | %15
w: |||
w: i- * * ly,|i- ly say un- to thee,|Ye must be born a-|
w: |||
w: |||
 [GB]2 [EG] [EG]2 [DF] | E2 C [B,E]2 |] %17
w: ||
w: gain.” * * *||
w: ||
w: ||
V:2
 x | x6 | x6 | x6 | x6 | x6 | x6 | x6 | B3- F2 || x7 | c3- x3 | x6 | B3- x3 | x6 | x6 | x6 | %16
w: ||||||||||||||||
w: ||||||||“Ye must||born||ver-||||
 E3- x2 |] %17
w: |
w: |
V:3
 [E,G,] | [E,B,][E,B,][E,B,] ([E,B,][E,B,])[E,B,] | [E,E][E,E][E,E] [E,E]2 ([E,E]/[E,E]/) | %3
 [B,,E][B,,B,][B,,B,] [B,,B,][B,,B,][B,,B,] | [E,B,][E,B,][E,=A,] [E,B,]2 [E,G,] | %5
 [E,B,][E,B,][E,B,] [E,B,][E,B,][E,B,] | [E,E][E,E][E,E] [E,E]2 [E,B,] | %7
 [F,B,]2 [F,D] [F,C]2 [F,C] | (B,2 G, A,2) || [B,,D] [E,E]2 [E,E] [E,B,]2 [E,E] | %10
 [A,E]3 [A,E]2 [A,,E] | [B,,D]2 [B,,B,] [B,,B,]2 [B,,B,] | B,2 A, G,2 [B,,B,] | %13
 [E,B,]>[E,B,][E,B,] [F,B,]>[F,B,][F,B,] | [G,B,][G,B,][G,B,] A,2 [A,C] | %15
 [B,E]2 B, [B,,B,]2 [B,,A,] | ([E,G,]2 [E,A,] [E,G,]2) |] %17
V:4
 x | x6 | x6 | x6 | x6 | x6 | x6 | x6 | B,,3- B,,2 || x7 | x6 | x6 | E,3- E,2 x | x6 | x3 A,2 x | %15
 x2 B, x3 | x5 |] %17

